dist/svgs/core-ui-icons/free/cil-usb.svg

<svg xmlns="http://www.w3.org/2000/svg" viewBox="0 0 512 512"><path d="M320 224h32v40h-80V78.627l17.941 17.941 22.627-22.627L256 17.373l-56.568 56.568 22.627 22.627L240 78.627V264h-72v-42.341a56 56 0 10-32 0V296h104v90.341a56 56 0 1032 0V296h112v-72h40V120H320zm-192-56a24 24 0 1124 24 24.027 24.027 0 01-24-24zm152 272a24 24 0 11-24-24 24.027 24.027 0 0124 24zm72-288h40v40h-40z"/></svg>

<svg xmlns="http://www.w3.org/2000/svg" viewBox="0 0 512 512">
  <path fill="var(--ci-primary-color, currentColor)" d="M320,224h32v40H272V78.627l17.941,17.941,22.627-22.627L256,17.373,199.432,73.941l22.627,22.627L240,78.627V264H168V221.659a56,56,0,1,0-32,0V296H240v90.341a56,56,0,1,0,32,0V296H384V224h40V120H320ZM128,168a24,24,0,1,1,24,24A24.027,24.027,0,0,1,128,168ZM280,440a24,24,0,1,1-24-24A24.027,24.027,0,0,1,280,440Zm72-288h40v40H352Z" class="ci-primary"/>
</svg>
